gnome/icons/Varda/apps/scalable/preferences-security.svg

<?xml version="1.0" encoding="UTF-8" standalone="no"?>
<svg
   xmlns:dc="http://purl.org/dc/elements/1.1/"
   xmlns:cc="http://creativecommons.org/ns#"
   xmlns:rdf="http://www.w3.org/1999/02/22-rdf-syntax-ns#"
   xmlns:svg="http://www.w3.org/2000/svg"
   xmlns="http://www.w3.org/2000/svg"
   xmlns:sodipodi="http://sodipodi.sourceforge.net/DTD/sodipodi-0.dtd"
   xmlns:inkscape="http://www.inkscape.org/namespaces/inkscape"
   width="64px"
   height="64px"
   viewBox="0 0 64 64"
   version="1.1"
   id="svg9"
   sodipodi:docname="preferences-security.svg"
   inkscape:version="1.0.2 (e86c870879, 2021-01-15)">
  <metadata
     id="metadata15">
    <rdf:RDF>
      <cc:Work
         rdf:about="">
        <dc:format>image/svg+xml</dc:format>
        <dc:type
           rdf:resource="http://purl.org/dc/dcmitype/StillImage" />
      </cc:Work>
    </rdf:RDF>
  </metadata>
  <defs
     id="defs13" />
  <sodipodi:namedview
     pagecolor="#ffffff"
     bordercolor="#666666"
     borderopacity="1"
     objecttolerance="10"
     gridtolerance="10"
     guidetolerance="10"
     inkscape:pageopacity="0"
     inkscape:pageshadow="2"
     inkscape:window-width="2560"
     inkscape:window-height="1403"
     id="namedview11"
     showgrid="false"
     inkscape:zoom="15.75"
     inkscape:cx="32"
     inkscape:cy="32"
     inkscape:window-x="0"
     inkscape:window-y="0"
     inkscape:window-maximized="1"
     inkscape:current-layer="surface1" />
  <g
     id="surface1">
    <path
       style="fill:#0c0e11;fill-opacity:1;fill-rule:nonzero;stroke:none"
       d="m 31.75,6.121094 c -6.9375,4.890625 -17.726562,4.964844 -26.441406,4.960937 0.25,10.652344 3.449218,22.464844 8.265625,31.632813 2.507812,4.773437 5.457031,8.828125 8.582031,11.640625 3.125,2.808593 6.375,4.351562 9.59375,4.351562 3.21875,0 6.46875,-1.542969 9.59375,-4.351562 3.125,-2.8125 6.074219,-6.867188 8.582031,-11.640625 4.816407,-9.167969 8.015625,-20.980469 8.265625,-31.632813 C 49.476562,11.085938 38.6875,11.011719 31.75,6.121094 Z m 0,0"
       id="path2" />
    <path
       style="fill:#733447;fill-opacity:1;fill-rule:nonzero;stroke:none"
       d="M 31.714844,3.144531 C 31.425781,3.152344 31.148438,3.253906 30.921875,3.433594 24.914062,8.242188 13.230469,8.4375 3.96875,8.4375 c -0.730469,0 -1.324219,0.59375 -1.324219,1.324219 0,11.503906 3.351563,24.21875 8.585938,34.183593 2.617187,4.980469 5.707031,9.277344 9.15625,12.378907 3.445312,3.101562 7.304687,5.03125 11.363281,5.03125 4.058594,0 7.917969,-1.929688 11.363281,-5.03125 3.449219,-3.101563 6.539063,-7.398438 9.15625,-12.378907 5.234375,-9.964843 8.585938,-22.679687 8.585938,-34.183593 0,-0.730469 -0.59375,-1.324219 -1.324219,-1.324219 -9.261719,0 -20.945312,-0.195312 -26.953125,-5.003906 C 32.332031,3.238281 32.027344,3.136719 31.714844,3.144531 Z M 31.75,6.121094 c 6.9375,4.890625 17.726562,4.964844 26.441406,4.960937 -0.25,10.652344 -3.449218,22.464844 -8.265625,31.632813 -2.507812,4.773437 -5.457031,8.828125 -8.582031,11.640625 -3.125,2.808593 -6.375,4.351562 -9.59375,4.351562 -3.21875,0 -6.46875,-1.542969 -9.59375,-4.351562 -3.125,-2.8125 -6.074219,-6.867188 -8.582031,-11.640625 C 8.757812,33.546875 5.558594,21.734375 5.308594,11.082031 14.023438,11.085938 24.8125,11.011719 31.75,6.121094 Z m 0,0"
       id="path4" />
    <path
       style="fill:#733447;fill-opacity:1;fill-rule:nonzero;stroke:none"
       d="m 31.75,19.019531 c -3.664062,0 -6.613281,2.953125 -6.613281,6.617188 v 5.289062 H 23.8125 c -0.734375,0 -1.324219,0.589844 -1.324219,1.324219 v 6.613281 c 0,0.734375 0.589844,1.324219 1.324219,1.324219 h 15.875 c 0.734375,0 1.324219,-0.589844 1.324219,-1.324219 V 32.25 c 0,-0.734375 -0.589844,-1.324219 -1.324219,-1.324219 h -1.324219 v -5.289062 c 0,-3.664063 -2.949219,-6.617188 -6.613281,-6.617188 z m 0,2.648438 c 2.199219,0 3.96875,1.769531 3.96875,3.96875 v 5.289062 h -7.9375 v -5.289062 c 0,-2.199219 1.769531,-3.96875 3.96875,-3.96875 z m 0,0"
       id="path6" />
  </g>
</svg>

<?xml version="1.0" encoding="UTF-8"?>
<svg xmlns="http://www.w3.org/2000/svg" xmlns:xlink="http://www.w3.org/1999/xlink" width="64px" height="64px" viewBox="0 0 64 64" version="1.1">
<g id="surface1">
<path style=" stroke:none;fill-rule:nonzero;fill:rgb(25.882354%,25.882354%,25.882354%);fill-opacity:1;" d="M 31.75 6.121094 C 24.8125 11.011719 14.023438 11.085938 5.308594 11.082031 C 5.558594 21.734375 8.757812 33.546875 13.574219 42.714844 C 16.082031 47.488281 19.03125 51.542969 22.15625 54.355469 C 25.28125 57.164062 28.53125 58.707031 31.75 58.707031 C 34.96875 58.707031 38.21875 57.164062 41.34375 54.355469 C 44.46875 51.542969 47.417969 47.488281 49.925781 42.714844 C 54.742188 33.546875 57.941406 21.734375 58.191406 11.082031 C 49.476562 11.085938 38.6875 11.011719 31.75 6.121094 Z M 31.75 6.121094 "/>
<path style=" stroke:none;fill-rule:nonzero;fill:rgb(100%,65.490198%,14.901961%);fill-opacity:1;" d="M 31.714844 3.144531 C 31.425781 3.152344 31.148438 3.253906 30.921875 3.433594 C 24.914062 8.242188 13.230469 8.4375 3.96875 8.4375 C 3.238281 8.4375 2.644531 9.03125 2.644531 9.761719 C 2.644531 21.265625 5.996094 33.980469 11.230469 43.945312 C 13.847656 48.925781 16.9375 53.222656 20.386719 56.324219 C 23.832031 59.425781 27.691406 61.355469 31.75 61.355469 C 35.808594 61.355469 39.667969 59.425781 43.113281 56.324219 C 46.5625 53.222656 49.652344 48.925781 52.269531 43.945312 C 57.503906 33.980469 60.855469 21.265625 60.855469 9.761719 C 60.855469 9.03125 60.261719 8.4375 59.53125 8.4375 C 50.269531 8.4375 38.585938 8.242188 32.578125 3.433594 C 32.332031 3.238281 32.027344 3.136719 31.714844 3.144531 Z M 31.75 6.121094 C 38.6875 11.011719 49.476562 11.085938 58.191406 11.082031 C 57.941406 21.734375 54.742188 33.546875 49.925781 42.714844 C 47.417969 47.488281 44.46875 51.542969 41.34375 54.355469 C 38.21875 57.164062 34.96875 58.707031 31.75 58.707031 C 28.53125 58.707031 25.28125 57.164062 22.15625 54.355469 C 19.03125 51.542969 16.082031 47.488281 13.574219 42.714844 C 8.757812 33.546875 5.558594 21.734375 5.308594 11.082031 C 14.023438 11.085938 24.8125 11.011719 31.75 6.121094 Z M 31.75 6.121094 "/>
<path style=" stroke:none;fill-rule:nonzero;fill:rgb(100%,65.490198%,14.901961%);fill-opacity:1;" d="M 31.75 19.019531 C 28.085938 19.019531 25.136719 21.972656 25.136719 25.636719 L 25.136719 30.925781 L 23.8125 30.925781 C 23.078125 30.925781 22.488281 31.515625 22.488281 32.25 L 22.488281 38.863281 C 22.488281 39.597656 23.078125 40.1875 23.8125 40.1875 L 39.6875 40.1875 C 40.421875 40.1875 41.011719 39.597656 41.011719 38.863281 L 41.011719 32.25 C 41.011719 31.515625 40.421875 30.925781 39.6875 30.925781 L 38.363281 30.925781 L 38.363281 25.636719 C 38.363281 21.972656 35.414062 19.019531 31.75 19.019531 Z M 31.75 21.667969 C 33.949219 21.667969 35.71875 23.4375 35.71875 25.636719 L 35.71875 30.925781 L 27.78125 30.925781 L 27.78125 25.636719 C 27.78125 23.4375 29.550781 21.667969 31.75 21.667969 Z M 31.75 21.667969 "/>
</g>
</svg>
